src/assets/img/icons/payment_system/not_selected/qiwi.svg

<svg width="55" height="20" viewBox="0 0 55 20" fill="none" xmlns="http://www.w3.org/2000/svg">
<g clip-path="url(#clip0_355_849)">
<path fill-rule="evenodd" clip-rule="evenodd" d="M13.4819 17.3837C15.175 17.3837 17.0119 17.9631 19.0456 19.7612C19.2494 19.9412 19.5206 19.7175 19.3425 19.4937C17.3444 16.9756 15.4962 16.4962 13.6531 16.0912C11.3981 15.595 10.2387 14.3287 9.43062 12.9387C9.27 12.6625 9.1975 12.7112 9.18312 13.0669C9.165 13.5012 9.19562 14.0769 9.29312 14.6431C9.20187 14.6469 9.11062 14.6462 9.01812 14.6462C5.79312 14.6462 3.17812 12.0362 3.17812 8.81687C3.17812 5.59812 5.79312 2.98875 9.01875 2.98875C12.2437 2.98875 14.8587 5.59812 14.8587 8.81687C14.8587 9.04625 14.8475 9.27312 14.8212 9.495C14.395 9.41812 13.5556 9.40937 12.9669 9.46C12.7456 9.47937 12.7769 9.5825 12.9444 9.6125C14.875 9.96062 16.2006 11.155 16.5044 13.3219C16.5106 13.3719 16.5769 13.3862 16.6025 13.3431C17.4234 11.9763 17.8558 10.4113 17.8531 8.81687C17.8531 3.94812 13.8975 0 9.01875 0C4.13937 0 0.183746 3.9475 0.183746 8.81687C0.183746 13.6869 4.13937 17.635 9.01875 17.635C10.3125 17.635 11.5975 17.3837 13.4819 17.3837ZM14.1394 14.1825C14.5325 14.5137 14.6519 14.9081 14.4444 15.1862C14.3287 15.3387 14.1412 15.4231 13.9162 15.4231C13.6967 15.4232 13.4842 15.3462 13.3156 15.2056C12.9581 14.8937 12.8531 14.3887 13.0862 14.1019C13.1775 13.9894 13.3256 13.9275 13.5031 13.9275C13.7187 13.9275 13.945 14.0181 14.1394 14.1825ZM15.9531 13.34C16.0106 13.7262 15.8887 13.8862 15.7656 13.8862C15.6312 13.8862 15.4631 13.73 15.265 13.4206C15.0687 13.1156 14.9969 12.7656 15.0944 12.5887C15.1581 12.4719 15.2925 12.4206 15.4619 12.485C15.79 12.6081 15.9181 13.1094 15.9531 13.34ZM28.1994 11.3212L27.1806 10.0981C27.1567 10.0693 27.1415 10.0342 27.1369 9.99707C27.1322 9.95992 27.1382 9.92219 27.1542 9.88834C27.1702 9.85448 27.1956 9.82589 27.2273 9.80593C27.2589 9.78596 27.2957 9.77545 27.3331 9.77562H29.4637C29.565 9.47437 29.6225 9.1525 29.6225 8.8175C29.6225 7.28625 28.48 5.96562 26.9125 5.96562C25.345 5.96562 24.2025 7.28625 24.2025 8.8175C24.2025 10.3487 25.345 11.6512 26.9125 11.6512C27.3875 11.6512 27.8225 11.53 28.2 11.3206L28.1994 11.3212ZM32.8081 13.3869C32.9187 13.5094 32.8281 13.7056 32.6612 13.7056H30.3362C30.2895 13.7057 30.2434 13.6955 30.201 13.6757C30.1587 13.6559 30.1212 13.6271 30.0912 13.5912L29.6975 13.1181C28.8683 13.6559 27.9008 13.9416 26.9125 13.9406C24.0819 13.9406 21.7794 11.6425 21.7794 8.8175C21.7794 5.9925 24.0819 3.69437 26.9125 3.69437C29.7431 3.69437 32.0456 5.9925 32.0456 8.8175C32.0456 9.83625 31.7456 10.785 31.23 11.5837L32.8081 13.3869ZM54.2887 3.93125H52.3906C52.3239 3.93141 52.2599 3.958 52.2127 4.0052C52.1655 4.0524 52.1389 4.11637 52.1387 4.18312V13.4537C52.1387 13.5931 52.2512 13.7056 52.3906 13.7056H54.2887C54.4281 13.7056 54.5412 13.5931 54.5412 13.4537V4.1825C54.5412 4.11553 54.5146 4.05131 54.4673 4.00395C54.4199 3.9566 54.3557 3.93 54.2887 3.93V3.93125ZM51.095 3.93125H48.9725C48.9186 3.93104 48.866 3.9481 48.8225 3.97993C48.779 4.01176 48.7468 4.05668 48.7306 4.10812L47.0506 9.58687L45.2037 4.10187C45.1868 4.05184 45.1546 4.00838 45.1117 3.97765C45.0687 3.94692 45.0172 3.93047 44.9644 3.93062H43.4831C43.4302 3.93043 43.3786 3.94686 43.3355 3.97758C43.2925 4.00831 43.2601 4.05179 43.2431 4.10187L41.3969 9.58687L39.7169 4.10812C39.7008 4.05656 39.6687 4.0115 39.6252 3.97956C39.5816 3.94761 39.529 3.93046 39.475 3.93062H37.3519C37.312 3.93069 37.2727 3.94018 37.2372 3.95832C37.2017 3.97646 37.1709 4.00273 37.1475 4.035C37.1241 4.06696 37.1087 4.10408 37.1026 4.14324C37.0965 4.18239 37.0999 4.22243 37.1125 4.26L40.2312 13.5356C40.2656 13.6381 40.3625 13.7069 40.4706 13.7069H42.1556C42.2644 13.7069 42.3606 13.6381 42.395 13.5362L44.2237 8.11687L46.0519 13.5356C46.0862 13.6381 46.1831 13.7069 46.2912 13.7069H47.9769C48.0856 13.7069 48.1819 13.6381 48.2162 13.5356L51.335 4.26C51.3476 4.22247 51.351 4.18247 51.3451 4.14334C51.3391 4.1042 51.3238 4.06706 51.3006 4.035C51.2771 4.00268 51.2463 3.97639 51.2106 3.95825C51.175 3.94011 51.1356 3.93064 51.0956 3.93062L51.095 3.93125ZM36.3087 4.18312V13.4537C36.3087 13.5931 36.1962 13.7056 36.0562 13.7056H34.1587C34.0919 13.7056 34.0278 13.6791 33.9804 13.6319C33.9331 13.5847 33.9064 13.5206 33.9062 13.4537V4.1825C33.9062 4.04312 34.0187 3.93 34.1587 3.93H36.0562C36.1956 3.93 36.3087 4.0425 36.3087 4.1825V4.18312Z" fill="#333D48"/>
</g>
<defs>
<clipPath id="clip0_355_849">
<rect width="54.375" height="20" fill="white"/>
</clipPath>
</defs>
</svg>

<svg width="55" height="20" fill="none" xmlns="http://www.w3.org/2000/svg"><g clip-path="url(#a)"><path fill-rule="evenodd" clip-rule="evenodd" d="M13.482 17.384c1.693 0 3.53.58 5.564 2.377.203.18.475-.043.297-.267-1.999-2.518-3.847-2.998-5.69-3.403-2.255-.496-3.414-1.762-4.222-3.152-.161-.277-.233-.228-.248.128-.018.434.013 1.01.11 1.576-.091.004-.182.003-.275.003a5.835 5.835 0 0 1-5.84-5.83c0-3.218 2.615-5.827 5.84-5.827 3.226 0 5.84 2.61 5.84 5.828 0 .23-.01.456-.037.678-.426-.077-1.265-.086-1.854-.035-.221.02-.19.122-.023.152 1.931.349 3.257 1.543 3.56 3.71.007.05.073.064.098.021a8.762 8.762 0 0 0 1.251-4.526C17.853 3.948 13.897 0 9.02 0 4.139 0 .184 3.947.184 8.817s3.955 8.818 8.835 8.818c1.293 0 2.579-.251 4.463-.251Zm.657-3.202c.394.332.513.726.305 1.004-.115.153-.303.237-.528.237a.937.937 0 0 1-.6-.217c-.358-.312-.463-.817-.23-1.104a.52.52 0 0 1 .417-.175c.216 0 .442.091.636.255Zm1.814-.842c.058.386-.064.546-.187.546-.135 0-.303-.156-.501-.465-.196-.305-.268-.655-.17-.832.063-.117.197-.168.367-.104.328.123.456.624.491.855ZM28.2 11.321l-1.018-1.223a.196.196 0 0 1 .046-.292.197.197 0 0 1 .106-.03h2.13a3 3 0 0 0 .16-.958c0-1.532-1.143-2.852-2.71-2.852-1.568 0-2.71 1.32-2.71 2.852 0 1.53 1.142 2.833 2.71 2.833.474 0 .91-.121 1.287-.33Zm4.61 2.066c.11.122.02.319-.148.319h-2.325a.318.318 0 0 1-.245-.115l-.393-.473a5.109 5.109 0 0 1-2.785.823c-2.831 0-5.134-2.299-5.134-5.123 0-2.825 2.303-5.124 5.134-5.124 2.83 0 5.133 2.298 5.133 5.124 0 1.018-.3 1.967-.816 2.766l1.578 1.803Zm21.48-9.456H52.39a.253.253 0 0 0-.252.252v9.27c0 .14.112.253.252.253h1.898c.14 0 .252-.113.252-.252V4.182a.253.253 0 0 0-.252-.252v.001Zm-3.194 0h-2.123a.252.252 0 0 0-.241.177l-1.68 5.479-1.847-5.485a.252.252 0 0 0-.24-.171h-1.48a.253.253 0 0 0-.24.17l-1.847 5.486-1.68-5.479a.253.253 0 0 0-.242-.177h-2.123a.253.253 0 0 0-.25.212.247.247 0 0 0 .01.117l3.12 9.276a.252.252 0 0 0 .239.17h1.685a.252.252 0 0 0 .239-.17l1.829-5.42 1.828 5.42a.252.252 0 0 0 .24.17h1.685a.252.252 0 0 0 .24-.17l3.118-9.276a.25.25 0 0 0-.24-.33v.001Zm-14.786.252v9.27c0 .14-.113.253-.253.253H34.16a.253.253 0 0 1-.253-.252V4.182c0-.139.113-.252.253-.252h1.897c.14 0 .253.113.253.252v.001Z" fill="#333D48"/></g><defs><clipPath id="a"><path fill="#fff" d="M0 0h54.375v20H0z"/></clipPath></defs></svg>
